fonts/piswpi/uni006b.svg

<svg width="500" height="900" xmlns="http://www.w3.org/2000/svg">
    <path
        d="M 250 200 A 50 50 0 0 0 200 250 A 50 50 0 0 0 250 300 A 50 50 0 0 0 300 250 A 50 50 0 0 0 250 200 z M 108.57812 258.57812 A 50 50 0 0 0 58.578125 308.57812 A 50 50 0 0 0 108.57812 358.57812 A 50 50 0 0 0 158.57812 308.57812 A 50 50 0 0 0 108.57812 258.57812 z M 50 400 A 50 50 0 0 0 0 450 A 50 50 0 0 0 50 500 A 50 50 0 0 0 100 450 A 50 50 0 0 0 50 400 z " />
</svg>

<svg width="500" height="900" xmlns="http://www.w3.org/2000/svg">
    <path d="M250 200a50 50 0 0 0-50 50 50 50 0 0 0 50 50 50 50 0 0 0 50-50 50 50 0 0 0-50-50zm-144.988 58.705a50 50 0 0 0-31.79 14.518 50 50 0 0 0 0 70.71 50 50 0 0 0 70.712 0 50 50 0 0 0 0-70.71 50 50 0 0 0-38.922-14.518zM50 400a50 50 0 0 0-50 50 50 50 0 0 0 50 50 50 50 0 0 0 50-50 50 50 0 0 0-50-50z"/>
</svg>
